X: 434
T: Gege laile xinshang le
%%abc-version 2.0
%%abcx-abcm2ps-target-version 5.9.1 (29 Sep 2008)
%%abc-creator hum2abc beta
%%abcx-conversion-date 2013/10/02 07:52:30
%%abc-edited-by Helmut Schaffrath
%%humdrum-veritas 825803109
%%humdrum-veritas-data 363036045
%%continueall 1
%%barnumbers 0
L: 1/8
M: 2/4
K: D
F A B B [I:setbarnb 1]| 
d> e B A | 
E F B A | 
F4 | 
F A B B | 
d> e B A | 
E F B A | 
B,4 |]  



